X:93
T:You be Welcome here again
M: C|
L:1/8
B:Thompson's Compleat Collection of 200 Favourite Country Dances, vol. 3 (London, 1773)
Z:Transcribed and edited by Flynn Titford-Mock, 2007
Z:abc's:AK/Fiddler's Companion
K:D
D/D/D AB | A>FAB | D/D/D dB AFEF | D/D/D B=c ABde | fdef d/d/d d2 :|
|: fd d(e/f/) gfed | cAeA fAeg | fd d(e/f/) gfed | c>def d/d/d d2 :|

